X:1
T: The House of Clova
C:Alexander Walker
R:Jig
Q:180
K:C
M:6/8
L:1/16
F2|B2c2B2 A2G2F2|G2A2B2 F2D2B,2|B2c2d2 D2E2F2|G4C2 C4F2|B2c2B2 A2G2F2|G2A2B2 c2d2f2|b2a2b2 c2d2f2|g4G2 G4F2|
B2c2B2 A2G2F2|G2A2B2 F2D2B,2|B2c2d2 D2E2F2|G4C2 C4F2|B2c2B2 A2G2F2|G2A2B2 c2d2f2|b2a2b2 c2d2f2|g4G2 G4g2|
f2d2B2 F4B2|G2A2B2 F4B2|E4G2 D4F2|G2E2C2 C4g2|f2d2B2 F4B2|G2A2B2 F4B2|e2f2g2 c2d2e2|d2B2B2 B4g2|
f2d2B2 F4B2|G2A2B2 F4B2|E4G2 D4F2|G2E2C2 C4a2|b2a2g2 f2e2d2|g2f2e2 d2c2B2|A2B2c2 F2G2A2|B4B,2B,4||
